_illustrations/motoyogo.svg

<svg xmlns="http://www.w3.org/2000/svg" width="548" height="400" viewBox="0 0 548 400"><path fill="#333" stroke="#231F20" stroke-width="4" stroke-linecap="round" stroke-linejoin="round" stroke-miterlimit="10" d="M442 373h74v-50h-84l10 50z"/><path fill="#333" stroke="#231F20" stroke-width="4" stroke-miterlimit="10" d="M92 375h362c10.514-13.28-12-58-46-60-57.39-3.376-240.865 0-262 0-50 0-54 48-54 60z"/><circle stroke="#231F20" stroke-width="4" stroke-miterlimit="10" cx="144.895" cy="362.106" r="20.124" fill="none"/><g class="wheel"><path fill="#5E6363" stroke="#231F20" stroke-width="4" stroke-miterlimit="10" d="M181.788 362.105c0 20.377-16.518 36.895-36.895 36.895C124.518 399 108 382.482 108 362.105c0-20.375 16.516-34.38 36.892-34.38 20.378.002 36.895 14.005 36.896 34.38z"/><circle fill="#89D9CE" stroke="#231F20" stroke-width="4" stroke-linecap="round" stroke-linejoin="round" stroke-miterlimit="10" cx="144.895" cy="362.106" r="20.124"/><circle fill="#6AA59B" cx="144.894" cy="362.106" r="6.708"/><path fill="#6AA59B" d="M133.673 357.156c.883.287 1.365 1.234 1.078 2.113-.285.878-1.23 1.358-2.113 1.073-.877-.285-1.36-1.232-1.075-2.11.29-.88 1.232-1.36 2.113-1.08l-.002.003zm3.154 14.028c.55-.75 1.598-.918 2.346-.373s.912 1.596.37 2.343c-.542.752-1.595.916-2.342.373-.747-.546-.913-1.596-.373-2.342zm13.418 1.968c-.543-.752-.377-1.8.37-2.344.75-.543 1.8-.377 2.345.373.544.747.377 1.8-.373 2.343-.748.543-1.797.373-2.342-.37zm6.907-12.802c-.884.282-1.83-.2-2.113-1.078-.287-.88.195-1.826 1.075-2.11.88-.29 1.83.192 2.112 1.075.287.878-.197 1.824-1.075 2.113zm-10.58-9.985c-.003.928-.753 1.682-1.677 1.68-.926-.004-1.674-.753-1.677-1.68-.003-.926.75-1.68 1.677-1.676.927 0 1.677.75 1.678 1.673v.002z"/></g><path fill="#89D9CE" d="M148.572 362.105c-.008 2.03-1.65 3.68-3.676 3.678-2.033-.006-3.676-1.648-3.676-3.678-.008-2.035 1.643-3.684 3.676-3.676 2.024-.004 3.668 1.645 3.676 3.673v.002z"/><g class="wheel"><path fill="#5E6363" stroke="#231F20" stroke-width="4" stroke-miterlimit="10" d="M439.788 362.105c0 20.377-16.52 36.895-36.896 36.895s-36.894-16.518-36.894-36.895c0-20.375 16.517-34.38 36.893-34.38 20.38.002 36.897 14.005 36.898 34.38z"/><circle fill="#89D9CE" stroke="#231F20" stroke-width="4" stroke-linecap="round" stroke-linejoin="round" stroke-miterlimit="10" cx="402.894" cy="362.106" r="20.124"/><circle fill="#6AA59B" cx="402.894" cy="362.106" r="6.708"/><circle stroke="#231F20" stroke-width="4" stroke-miterlimit="10" cx="402.894" cy="362.106" r="20.124" fill="none"/><circle fill="#6AA59B" cx="391.156" cy="358.751" r="1.677"/><path fill="#6AA59B" d="M394.828 371.184c.55-.75 1.598-.918 2.345-.373s.913 1.596.37 2.343c-.542.752-1.596.916-2.342.373-.746-.546-.912-1.596-.372-2.342zm13.416 1.968c-.543-.752-.377-1.8.37-2.344.75-.543 1.8-.377 2.345.373.543.747.377 1.8-.373 2.343s-1.8.373-2.343-.37zm6.906-12.802c-.883.282-1.827-.2-2.11-1.078-.287-.88.195-1.826 1.076-2.11.88-.29 1.83.192 2.11 1.075.288.878-.196 1.824-1.076 2.113zm-10.577-9.985c-.003.928-.753 1.682-1.677 1.68-.926-.004-1.676-.753-1.678-1.68-.005-.926.75-1.68 1.676-1.676.927 0 1.676.75 1.678 1.673v.002z"/></g><path fill="#89D9CE" d="M406.573 362.105c-.008 2.03-1.652 3.68-3.677 3.678-2.033-.006-3.678-1.648-3.678-3.678-.008-2.035 1.644-3.684 3.676-3.676 2.024-.004 3.67 1.645 3.678 3.673v.002z"/><path fill="#89D9CE" stroke="#231F20" stroke-width="4" stroke-linecap="round" stroke-linejoin="round" stroke-miterlimit="10" d="M544 171v-4c0-2.21-1.79-4-4-4h-24v-6c0-2.21-1.79-4-4-4H38c-3.314 0-6 2.687-6 6v8h4l-8 110-6 4-6 18 6 6-12 36v12l-8-2v10l84 24 20-62h8l34-10 24 10h32v62h142v-62h26l30-8 34 8h80v34h14v-10h-6V217l20-46zM120.405 305C96.22 312.977 78 332.93 78 361v5.938L32 353l12-182 88 14-11.595 120z"/><path fill="#D9295F" stroke="#231F20" stroke-width="4" stroke-linecap="round" stroke-linejoin="round" stroke-miterlimit="10" d="M544 171v-4c0-2.21-1.79-4-4-4h-24v-6c0-2.21-1.79-4-4-4H38c-3.314 0-6 2.687-6 6l92 12h420z"/><path fill="#ECECEC" stroke="#231F20" stroke-width="4" stroke-linecap="round" stroke-linejoin="round" stroke-miterlimit="10" d="M86 363.473V385s14 0 14-12v-9.242C100 337.742 118.163 321 144.18 321S190 337.742 190 363.758V373c0 12 14 12 14 12v-21.527c0-33.04-26.782-54.473-59.82-54.473C111.14 309 86 330.434 86 363.473zm258 0V385s14 0 14-12v-9.242C358 337.742 376.163 331 402.18 331S448 337.742 448 363.758V373c0 12 14 12 14 12v-21.527c0-33.04-26.78-54.473-59.82-54.473S344 330.434 344 363.473z"/><path fill="#89D9CE" d="M348 293h112v28H348v-28z"/><path fill="#89D9CE" stroke="#231F20" stroke-width="4" stroke-linecap="round" stroke-linejoin="round" stroke-miterlimit="10" d="M460 323H348"/><path fill="#444646" stroke="#231F20" stroke-width="4" stroke-linecap="round" stroke-linejoin="round" stroke-miterlimit="10" d="M182 179h334v128H182V179z"/><path fill="#C1BFB5" stroke="#231F20" stroke-width="4" stroke-linecap="round" stroke-linejoin="round" stroke-miterlimit="10" d="M196 299h310v8H196v-8z"/><path fill="#9E9683" stroke="#231F20" stroke-width="4" stroke-linecap="round" stroke-linejoin="round" stroke-miterlimit="10" d="M196 179h310v28H196v-28z"/><g stroke="#231F20" stroke-width="4" stroke-linecap="round" stroke-linejoin="round" stroke-miterlimit="10"><path fill="#333" d="M216 185h34v16h-34v-16z"/><path fill="#ECECEC" d="M216 185h12v16h-12v-16z"/><path fill="#333" d="M262 185h34v16h-34v-16z"/><path fill="#ECECEC" d="M262 185h12v16h-12v-16z"/><path fill="#333" d="M308 185h34v16h-34v-16z"/><path fill="#ECECEC" d="M308 185h12v16h-12v-16z"/><path fill="#333" d="M362 185h34v16h-34v-16z"/><path fill="#ECECEC" d="M362 185h12v16h-12v-16z"/><path fill="#333" d="M408 185h34v16h-34v-16z"/><path fill="#ECECEC" d="M408 185h12v16h-12v-16z"/><path fill="#333" d="M452 185h34v16h-34v-16z"/><path fill="#ECECEC" d="M452 185h12v16h-12v-16z"/></g><path fill="#89D9CE" stroke="#231F20" stroke-width="4" stroke-linecap="round" stroke-linejoin="round" stroke-miterlimit="10" d="M62 279H46"/><path fill="#4CABC2" stroke="#231F20" stroke-width="4" stroke-linecap="round" stroke-linejoin="round" stroke-miterlimit="10" d="M46 267h66c2.21 0 4-1.79 4-4l6.653-68c0-2.21-1.79-4-4-4L50 181l-4 86zm2-28h70M46 267h66c2.21 0 4-1.79 4-4l6.653-68c0-2.21-1.79-4-4-4L50 181l-4 86zm2-28h70"/><path opacity=".2" fill="#fff" enable-background="new" d="M94 187l-46.25 49.75L47.5 221 78 187h16zm12 2l-60 64v-4l56-60h4zm14 30l-44 48H46l68.5-76 7.5 2-2 26z"/><path stroke="#231F20" stroke-width="4" stroke-linecap="round" stroke-linejoin="round" stroke-miterlimit="10" d="M46 267h66c2.21 0 4-1.79 4-4l6.653-68c0-2.21-1.79-4-4-4L50 181l-4 86zm2-28h70" fill="none"/><path fill="#F79520" stroke="#231F20" stroke-width="4" stroke-linecap="round" stroke-linejoin="round" stroke-miterlimit="10" d="M142 153v-8c0-2.21-1.79-4-4-4h-4c-2.21 0-4 1.79-4 4v8h12zM18 313h-6c-2.21 0-4 1.79-4 4v4c0 2.21 1.79 4 4 4h2l4-12zm498 22h8c2.21 0 4-1.79 4-4v-4c0-2.21-1.79-4-4-4h-8v12z"/><g fill="#454646" stroke="#231F20" stroke-width="4" stroke-linecap="round" stroke-linejoin="round" stroke-miterlimit="10"><path d="M36 223c0-4.418 3.582-8 8-8l-4-4c-4.418 0-8 3.582-8 8l4 4zm16-8h-4c-4.418 0-8-3.582-8-8v-20c0-4.418 3.582-8 8-8h4v36z"/><circle cx="36" cy="219" r="4"/></g><path fill="#454545" stroke="#231F20" stroke-width="4" stroke-linecap="round" stroke-linejoin="round" stroke-miterlimit="10" d="M546 175c0-2.41-1.79-4-4-4h-40c-2.21 0-4 1.59-4 4v135.637c0 2.41 1.79 4.363 4 4.363h40c2.21 0 4-1.954 4-4.363V175z"/><path stroke="#D9295F" stroke-width="8" stroke-linecap="round" stroke-linejoin="round" stroke-miterlimit="10" d="M510 183h24" fill="none"/><path stroke="#D9295F" stroke-width="4" stroke-linecap="round" stroke-linejoin="round" stroke-miterlimit="10" d="M518 227h8m-8 8h8m-20 8h12m8 0h12" fill="none"/><g stroke-width="4" stroke-linecap="round" stroke-linejoin="round" stroke-miterlimit="10"><path stroke="#D9295F" d="M521 197h2m-4 4h6m-8 4h10" fill="none"/><path fill="#ECECEC" stroke="#ECECEC" d="M529 209h-14l4 6h6l4-6z"/></g><path stroke="#ECECEC" stroke-width="4" stroke-linecap="round" stroke-linejoin="round" stroke-miterlimit="10" d="M508 299h10m8 0h10m-18.334-16H526m-20 8h12m8 0h12m-24 16h16m-24-52h32" fill="none"/><path stroke="#ECECEC" stroke-width="8" stroke-linecap="round" stroke-linejoin="round" stroke-miterlimit="10" d="M508 269h28" fill="none"/><path fill="#454545" stroke="#231F20" stroke-width="4" stroke-linecap="round" stroke-linejoin="round" stroke-miterlimit="10" d="M204 175c0-2.41-1.79-4-4-4h-40c-2.21 0-4 1.59-4 4v135.637c0 2.41 1.79 4.363 4 4.363h40c2.21 0 4-1.954 4-4.363V175z"/><path stroke="#D9295F" stroke-width="8" stroke-linecap="round" stroke-linejoin="round" stroke-miterlimit="10" d="M168 183h24" fill="none"/><path stroke="#ECECEC" stroke-width="4" stroke-linecap="round" stroke-linejoin="round" stroke-miterlimit="10" d="M166 235h28m-28 8h10m8 0h10m-28 8h10m8 0h10m-28 12h28m-28 8h10m8 0h10m-10 8h10m-28 0h10m-10 12h28m-28 8h10m8 0h10m-10 8h10m-28 0h10" fill="none"/><path stroke="#ECECEC" stroke-width="8" stroke-linecap="round" stroke-linejoin="round" stroke-miterlimit="10" d="M168 195h24m-24 12h24m-24 12h24" fill="none"/><path fill="#00245E" stroke="#231F20" stroke-width="4" stroke-linecap="round" stroke-linejoin="round" stroke-miterlimit="10" d="M204 243h36v56h-36v-56z"/><path fill="#D9295F" stroke="#231F20" stroke-width="4" stroke-linecap="round" stroke-linejoin="round" stroke-miterlimit="10" d="M260 279h28l-4 20h-20l-4-20zm0-8h28v8h-28v-8z"/><path fill="#C1BFB5" stroke="#231F20" stroke-width="4" stroke-linecap="round" stroke-linejoin="round" stroke-miterlimit="10" d="M412 225h66v74h-66v-74z"/><path fill="#ECECEC" stroke="#231F20" stroke-width="4" stroke-linecap="round" stroke-linejoin="round" stroke-miterlimit="10" d="M412 225h66v20h-66v-20zm16 20h34v20h-34v-20z"/><path fill="#444646" stroke="#231F20" stroke-width="4" stroke-linecap="round" stroke-linejoin="round" stroke-miterlimit="10" d="M436 259v-12m9 12v-12m9 12v-12"/><path stroke="#D9295F" stroke-width="8" stroke-linecap="round" stroke-linejoin="round" stroke-miterlimit="10" d="M434 235h24" fill="none"/><path fill="#ECECEC" stroke="#231F20" stroke-width="4" stroke-linecap="round" stroke-linejoin="round" stroke-miterlimit="10" d="M308 237h54v62h-54v-62zm4-6h46v6h-46v-6zm4-6h36v6h-36v-6zm34 44c0 2.21-1.79 4-4 4h-4c-2.21 0-4-1.79-4-4v-6c0-2.21 1.79-4 4-4h4c2.21 0 4 1.79 4 4v6z"/><path fill="#444646" stroke="#231F20" stroke-width="4" stroke-linecap="round" stroke-linejoin="round" stroke-miterlimit="10" d="M346 261c0 1.104-.896 2-2 2s-2-.896-2-2v-14c0-1.104.896-2 2-2s2 .896 2 2v14z"/><path fill="#ECECEC" stroke="#231F20" stroke-width="4" stroke-linecap="round" stroke-linejoin="round" stroke-miterlimit="10" d="M398 295h-6l-2-8h10l-2 8zm0-8h-6l-2-8h10l-2 8zm0-8h-6l-2-8h10l-2 8zm0-8h-6l-2-8h10l-2 8zm0-8h-6l-2-8h10l-2 8z"/></svg>

<?xml version="1.0" encoding="utf-8"?>
<!-- Generator: Adobe Illustrator 16.0.1, SVG Export Plug-In . SVG Version: 6.00 Build 0)  -->
<!DOCTYPE svg PUBLIC "-//W3C//DTD SVG 1.1//EN" "http://www.w3.org/Graphics/SVG/1.1/DTD/svg11.dtd">
<svg version="1.1" id="Layer_1" xmlns="http://www.w3.org/2000/svg" xmlns:xlink="http://www.w3.org/1999/xlink" x="0px" y="0px"
	 width="548px" height="400px" viewBox="0 0 548 400" enable-background="new 0 0 548 400" xml:space="preserve">
<path fill="#333333" stroke="#231F20" stroke-width="4" stroke-linecap="round" stroke-linejoin="round" stroke-miterlimit="10" d="
	M442,373h74v-50h-84L442,373z"/>
<path fill="#333333" stroke="#231F20" stroke-width="4" stroke-miterlimit="10" d="M92,375h362c10.514-13.279-12-58-46-60
	c-57.39-3.376-240.865,0-262,0C96,315,92,363,92,375z"/>
<circle fill="none" stroke="#231F20" stroke-width="4" stroke-miterlimit="10" cx="144.895" cy="362.106" r="20.124"/>
<g class="wheel">
	<path fill="#5E6363" stroke="#231F20" stroke-width="4" stroke-miterlimit="10" d="M181.788,362.105
		c0,20.377-16.518,36.895-36.895,36.895c-20.375,0-36.894-16.518-36.894-36.895c0-20.375,16.517-34.379,36.893-34.379
		C165.27,327.727,181.787,341.73,181.788,362.105L181.788,362.105z"/>
	
		<circle fill="#89D9CE" stroke="#231F20" stroke-width="4" stroke-linecap="round" stroke-linejoin="round" stroke-miterlimit="10" cx="144.895" cy="362.106" r="20.124"/>
	<circle fill="#6AA59B" cx="144.894" cy="362.106" r="6.708"/>
	<path fill="#6AA59B" d="M133.673,357.156c0.883,0.287,1.365,1.234,1.078,2.113c-0.286,0.879-1.23,1.359-2.114,1.074
		c-0.877-0.285-1.36-1.232-1.075-2.109c0.29-0.881,1.232-1.362,2.113-1.08L133.673,357.156z M136.827,371.184
		c0.55-0.75,1.598-0.918,2.346-0.373s0.912,1.595,0.37,2.342c-0.542,0.752-1.595,0.916-2.342,0.373
		C136.453,372.98,136.287,371.93,136.827,371.184L136.827,371.184z M150.245,373.152c-0.543-0.752-0.377-1.801,0.37-2.344
		c0.75-0.543,1.8-0.377,2.345,0.373c0.544,0.746,0.377,1.799-0.373,2.342C151.839,374.066,150.79,373.896,150.245,373.152
		L150.245,373.152z M157.152,360.35c-0.884,0.282-1.83-0.199-2.113-1.078c-0.286-0.879,0.196-1.826,1.076-2.111
		c0.88-0.29,1.83,0.193,2.112,1.076C158.514,359.115,158.03,360.061,157.152,360.35L157.152,360.35z M146.573,350.365
		c-0.004,0.928-0.754,1.682-1.678,1.68c-0.926-0.004-1.674-0.753-1.677-1.68c-0.003-0.926,0.75-1.68,1.677-1.676
		c0.927,0,1.677,0.75,1.678,1.674V350.365z"/>
</g>
<path fill="#89D9CE" d="M148.572,362.105c-0.008,2.029-1.65,3.68-3.676,3.678c-2.033-0.006-3.676-1.648-3.676-3.678
	c-0.008-2.035,1.643-3.684,3.676-3.676c2.024-0.003,3.668,1.646,3.676,3.674V362.105z"/>
<g class="wheel">
	<path fill="#5E6363" stroke="#231F20" stroke-width="4" stroke-miterlimit="10" d="M439.788,362.105
		c0,20.377-16.519,36.895-36.896,36.895c-20.376,0-36.894-16.518-36.894-36.895c0-20.375,16.517-34.379,36.893-34.379
		C423.27,327.727,439.787,341.73,439.788,362.105L439.788,362.105z"/>
	
		<circle fill="#89D9CE" stroke="#231F20" stroke-width="4" stroke-linecap="round" stroke-linejoin="round" stroke-miterlimit="10" cx="402.894" cy="362.106" r="20.124"/>
	<circle fill="#6AA59B" cx="402.894" cy="362.106" r="6.708"/>
	<circle fill="none" stroke="#231F20" stroke-width="4" stroke-miterlimit="10" cx="402.894" cy="362.106" r="20.124"/>
	<circle fill="#6AA59B" cx="391.156" cy="358.751" r="1.677"/>
	<path fill="#6AA59B" d="M394.828,371.184c0.55-0.75,1.598-0.918,2.345-0.373s0.913,1.595,0.37,2.342
		c-0.542,0.752-1.596,0.916-2.342,0.373C394.454,372.98,394.288,371.93,394.828,371.184L394.828,371.184z M408.244,373.152
		c-0.543-0.752-0.377-1.801,0.37-2.344c0.75-0.543,1.8-0.377,2.345,0.373c0.544,0.746,0.378,1.799-0.372,2.342
		S408.787,373.896,408.244,373.152L408.244,373.152z M415.15,360.35c-0.883,0.282-1.827-0.199-2.11-1.078
		c-0.287-0.879,0.195-1.826,1.076-2.111c0.88-0.29,1.83,0.193,2.109,1.076C416.514,359.115,416.03,360.061,415.15,360.35
		L415.15,360.35z M404.573,350.365c-0.003,0.928-0.753,1.682-1.677,1.68c-0.926-0.004-1.676-0.753-1.678-1.68
		c-0.005-0.926,0.75-1.68,1.676-1.676c0.927,0,1.676,0.75,1.678,1.674L404.573,350.365z"/>
</g>
<path fill="#89D9CE" d="M406.573,362.105c-0.008,2.029-1.652,3.68-3.677,3.678c-2.033-0.006-3.678-1.648-3.678-3.678
	c-0.008-2.035,1.644-3.684,3.676-3.676c2.024-0.003,3.671,1.646,3.678,3.674L406.573,362.105z"/>
<path fill="#89D9CE" stroke="#231F20" stroke-width="4" stroke-linecap="round" stroke-linejoin="round" stroke-miterlimit="10" d="
	M544,171v-4c0-2.21-1.79-4-4-4h-24v-6c0-2.21-1.79-4-4-4H38c-3.314,0-6,2.687-6,6v8h4l-8,110l-6,4l-6,18l6,6l-12,36v12l-8-2v10
	l84,24l20-62h8l34-10l24,10h32v62h142v-62h26l30-8l34,8h80v34h14v-10h-6V217L544,171z M120.405,305C96.22,312.977,78,332.93,78,361
	v5.938L32,353l12-182l88,14L120.405,305z"/>
<path fill="#D9295F" stroke="#231F20" stroke-width="4" stroke-linecap="round" stroke-linejoin="round" stroke-miterlimit="10" d="
	M544,171v-4c0-2.21-1.79-4-4-4h-24v-6c0-2.21-1.79-4-4-4H38c-3.314,0-6,2.687-6,6l92,12H544z"/>
<path fill="#ECECEC" stroke="#231F20" stroke-width="4" stroke-linecap="round" stroke-linejoin="round" stroke-miterlimit="10" d="
	M86,363.473V385c0,0,14,0,14-12v-9.242C100,337.742,118.163,321,144.18,321c26.017,0,45.82,16.742,45.82,42.758V373
	c0,12,14,12,14,12v-21.527C204,330.434,177.218,309,144.18,309C111.14,309,86,330.434,86,363.473z M344,363.473V385c0,0,14,0,14-12
	v-9.242C358,337.742,376.163,331,402.18,331S448,337.742,448,363.758V373c0,12,14,12,14,12v-21.527
	C462,330.434,435.22,309,402.18,309S344,330.434,344,363.473z"/>
<path fill="#89D9CE" d="M348,293h112v28H348V293z"/>
<path fill="#89D9CE" stroke="#231F20" stroke-width="4" stroke-linecap="round" stroke-linejoin="round" stroke-miterlimit="10" d="
	M460,323H348"/>
<path fill="#444646" stroke="#231F20" stroke-width="4" stroke-linecap="round" stroke-linejoin="round" stroke-miterlimit="10" d="
	M182,179h334v128H182V179z"/>
<path fill="#C1BFB5" stroke="#231F20" stroke-width="4" stroke-linecap="round" stroke-linejoin="round" stroke-miterlimit="10" d="
	M196,299h310v8H196V299z"/>
<path fill="#9E9683" stroke="#231F20" stroke-width="4" stroke-linecap="round" stroke-linejoin="round" stroke-miterlimit="10" d="
	M196,179h310v28H196V179z"/>
<g>
	
		<path fill="#333333" stroke="#231F20" stroke-width="4" stroke-linecap="round" stroke-linejoin="round" stroke-miterlimit="10" d="
		M216,185h34v16h-34V185z"/>
	
		<path fill="#ECECEC" stroke="#231F20" stroke-width="4" stroke-linecap="round" stroke-linejoin="round" stroke-miterlimit="10" d="
		M216,185h12v16h-12V185z"/>
	
		<path fill="#333333" stroke="#231F20" stroke-width="4" stroke-linecap="round" stroke-linejoin="round" stroke-miterlimit="10" d="
		M262,185h34v16h-34V185z"/>
	
		<path fill="#ECECEC" stroke="#231F20" stroke-width="4" stroke-linecap="round" stroke-linejoin="round" stroke-miterlimit="10" d="
		M262,185h12v16h-12V185z"/>
	
		<path fill="#333333" stroke="#231F20" stroke-width="4" stroke-linecap="round" stroke-linejoin="round" stroke-miterlimit="10" d="
		M308,185h34v16h-34V185z"/>
	
		<path fill="#ECECEC" stroke="#231F20" stroke-width="4" stroke-linecap="round" stroke-linejoin="round" stroke-miterlimit="10" d="
		M308,185h12v16h-12V185z"/>
	
		<path fill="#333333" stroke="#231F20" stroke-width="4" stroke-linecap="round" stroke-linejoin="round" stroke-miterlimit="10" d="
		M362,185h34v16h-34V185z"/>
	
		<path fill="#ECECEC" stroke="#231F20" stroke-width="4" stroke-linecap="round" stroke-linejoin="round" stroke-miterlimit="10" d="
		M362,185h12v16h-12V185z"/>
	
		<path fill="#333333" stroke="#231F20" stroke-width="4" stroke-linecap="round" stroke-linejoin="round" stroke-miterlimit="10" d="
		M408,185h34v16h-34V185z"/>
	
		<path fill="#ECECEC" stroke="#231F20" stroke-width="4" stroke-linecap="round" stroke-linejoin="round" stroke-miterlimit="10" d="
		M408,185h12v16h-12V185z"/>
	
		<path fill="#333333" stroke="#231F20" stroke-width="4" stroke-linecap="round" stroke-linejoin="round" stroke-miterlimit="10" d="
		M452,185h34v16h-34V185z"/>
	
		<path fill="#ECECEC" stroke="#231F20" stroke-width="4" stroke-linecap="round" stroke-linejoin="round" stroke-miterlimit="10" d="
		M452,185h12v16h-12V185z"/>
</g>
<path fill="#89D9CE" stroke="#231F20" stroke-width="4" stroke-linecap="round" stroke-linejoin="round" stroke-miterlimit="10" d="
	M62,279H46"/>
<g>
	
		<path fill="#4CABC2" stroke="#231F20" stroke-width="4" stroke-linecap="round" stroke-linejoin="round" stroke-miterlimit="10" d="
		M46,267h66c2.21,0,4-1.79,4-4l6.653-68c0-2.21-1.79-4-4-4L50,181L46,267z M48,239h70"/>
</g>
<g>
	
		<path fill="#4CABC2" stroke="#231F20" stroke-width="4" stroke-linecap="round" stroke-linejoin="round" stroke-miterlimit="10" d="
		M46,267h66c2.21,0,4-1.79,4-4l6.653-68c0-2.21-1.79-4-4-4L50,181L46,267z M48,239h70"/>
</g>
<path opacity="0.2" fill="#FFFFFF" enable-background="new    " d="M94,187l-46.25,49.75L47.5,221L78,187H94z M106,189l-60,64v-4
	l56-60H106z M120,219l-44,48H46l68.5-76l7.5,2L120,219z"/>
<g>
	<path fill="none" stroke="#231F20" stroke-width="4" stroke-linecap="round" stroke-linejoin="round" stroke-miterlimit="10" d="
		M46,267h66c2.21,0,4-1.79,4-4l6.653-68c0-2.21-1.79-4-4-4L50,181L46,267z M48,239h70"/>
</g>
<path fill="#F79520" stroke="#231F20" stroke-width="4" stroke-linecap="round" stroke-linejoin="round" stroke-miterlimit="10" d="
	M142,153v-8c0-2.21-1.79-4-4-4h-4c-2.21,0-4,1.79-4,4v8H142z M18,313h-6c-2.21,0-4,1.79-4,4v4c0,2.21,1.79,4,4,4h2L18,313z M516,335
	h8c2.21,0,4-1.79,4-4v-4c0-2.21-1.79-4-4-4h-8V335z"/>
<g>
	
		<path fill="#454646" stroke="#231F20" stroke-width="4" stroke-linecap="round" stroke-linejoin="round" stroke-miterlimit="10" d="
		M36,223c0-4.418,3.582-8,8-8l-4-4c-4.418,0-8,3.582-8,8L36,223z M52,215h-4c-4.418,0-8-3.582-8-8v-20c0-4.418,3.582-8,8-8h4V215z"
		/>
	
		<circle fill="#454646" stroke="#231F20" stroke-width="4" stroke-linecap="round" stroke-linejoin="round" stroke-miterlimit="10" cx="36" cy="219" r="4"/>
</g>
<path fill="#454545" stroke="#231F20" stroke-width="4" stroke-linecap="round" stroke-linejoin="round" stroke-miterlimit="10" d="
	M546,175c0-2.41-1.79-4-4-4h-40c-2.21,0-4,1.59-4,4v135.637c0,2.41,1.79,4.363,4,4.363h40c2.21,0,4-1.954,4-4.363V175z"/>
<path fill="none" stroke="#D9295F" stroke-width="8" stroke-linecap="round" stroke-linejoin="round" stroke-miterlimit="10" d="
	M510,183h24"/>
<path fill="none" stroke="#D9295F" stroke-width="4" stroke-linecap="round" stroke-linejoin="round" stroke-miterlimit="10" d="
	M518,227h8 M518,235h8 M506,243h12 M526,243h12"/>
<g>
	<path fill="none" stroke="#D9295F" stroke-width="4" stroke-linecap="round" stroke-linejoin="round" stroke-miterlimit="10" d="
		M521,197h2 M519,201h6 M517,205h10"/>
	
		<path fill="#ECECEC" stroke="#ECECEC" stroke-width="4" stroke-linecap="round" stroke-linejoin="round" stroke-miterlimit="10" d="
		M529,209h-14l4,6h6L529,209z"/>
</g>
<path fill="none" stroke="#ECECEC" stroke-width="4" stroke-linecap="round" stroke-linejoin="round" stroke-miterlimit="10" d="
	M508,299h10 M526,299h10 M517.666,283H526 M506,291h12 M526,291h12 M514,307h16 M506,255h32"/>
<path fill="none" stroke="#ECECEC" stroke-width="8" stroke-linecap="round" stroke-linejoin="round" stroke-miterlimit="10" d="
	M508,269h28"/>
<path fill="#454545" stroke="#231F20" stroke-width="4" stroke-linecap="round" stroke-linejoin="round" stroke-miterlimit="10" d="
	M204,175c0-2.41-1.79-4-4-4h-40c-2.21,0-4,1.59-4,4v135.637c0,2.41,1.79,4.363,4,4.363h40c2.21,0,4-1.954,4-4.363V175z"/>
<path fill="none" stroke="#D9295F" stroke-width="8" stroke-linecap="round" stroke-linejoin="round" stroke-miterlimit="10" d="
	M168,183h24"/>
<path fill="none" stroke="#ECECEC" stroke-width="4" stroke-linecap="round" stroke-linejoin="round" stroke-miterlimit="10" d="
	M166,235h28 M166,243h10 M184,243h10 M166,251h10 M184,251h10 M166,263h28 M166,271h10 M184,271h10 M184,279h10 M166,279h10
	 M166,291h28 M166,299h10 M184,299h10 M184,307h10 M166,307h10"/>
<path fill="none" stroke="#ECECEC" stroke-width="8" stroke-linecap="round" stroke-linejoin="round" stroke-miterlimit="10" d="
	M168,195h24 M168,207h24 M168,219h24"/>
<path fill="#00245E" stroke="#231F20" stroke-width="4" stroke-linecap="round" stroke-linejoin="round" stroke-miterlimit="10" d="
	M204,243h36v56h-36V243z"/>
<path fill="#D9295F" stroke="#231F20" stroke-width="4" stroke-linecap="round" stroke-linejoin="round" stroke-miterlimit="10" d="
	M260,279h28l-4,20h-20L260,279z M260,271h28v8h-28V271z"/>
<path fill="#C1BFB5" stroke="#231F20" stroke-width="4" stroke-linecap="round" stroke-linejoin="round" stroke-miterlimit="10" d="
	M412,225h66v74h-66V225z"/>
<path fill="#ECECEC" stroke="#231F20" stroke-width="4" stroke-linecap="round" stroke-linejoin="round" stroke-miterlimit="10" d="
	M412,225h66v20h-66V225z M428,245h34v20h-34V245z"/>
<path fill="#444646" stroke="#231F20" stroke-width="4" stroke-linecap="round" stroke-linejoin="round" stroke-miterlimit="10" d="
	M436,259v-12 M445,259v-12 M454,259v-12"/>
<path fill="none" stroke="#D9295F" stroke-width="8" stroke-linecap="round" stroke-linejoin="round" stroke-miterlimit="10" d="
	M434,235h24"/>
<path fill="#ECECEC" stroke="#231F20" stroke-width="4" stroke-linecap="round" stroke-linejoin="round" stroke-miterlimit="10" d="
	M308,237h54v62h-54V237z M312,231h46v6h-46V231z M316,225h36v6h-36V225z M350,269c0,2.21-1.79,4-4,4h-4c-2.21,0-4-1.79-4-4v-6
	c0-2.21,1.79-4,4-4h4c2.21,0,4,1.79,4,4V269z"/>
<path fill="#444646" stroke="#231F20" stroke-width="4" stroke-linecap="round" stroke-linejoin="round" stroke-miterlimit="10" d="
	M346,261c0,1.104-0.896,2-2,2s-2-0.896-2-2v-14c0-1.104,0.896-2,2-2s2,0.896,2,2V261z"/>
<path fill="#ECECEC" stroke="#231F20" stroke-width="4" stroke-linecap="round" stroke-linejoin="round" stroke-miterlimit="10" d="
	M398,295h-6l-2-8h10L398,295z M398,287h-6l-2-8h10L398,287z M398,279h-6l-2-8h10L398,279z M398,271h-6l-2-8h10L398,271z M398,263h-6
	l-2-8h10L398,263z"/>
</svg>
